-----BEGIN PGP PUBLIC KEY BLOCK-----

xjMEalHqHBYJKwYBBAHaRw8BAQdASQxrB7crzKAkzLgRoDHWbak52Yq6plKk
d5QdwWHbSaTNJlRob21hcyBKLiBQaWFvIDxtZXNvbkByZWFzb25vbWljcy5j
b20+wpMEExYKADsWIQQbKmU9dVkzdd7/pURd+grAOioqyQUCalHqHAIbAwUL
CQgHAgIiAgYVCgkICwIEFgIDAQIeBwIXgAAKCRBd+grAOioqyYsFAQCf8gU4
Tdo5k0MYOS8cnDMU9cASdFgXAD/4GJVrzfCd2gEA51sEC9+3F0Bk3vruwIER
MWvlamDoketpBYWkNTKy9wvOOARqUeocEgorBgEEAZdVAQUBAQdA9dYbHVvt
W3PUrpdQHoi4JRqcV9zP5z9BfsGYFpCVVkUDAQgHwngEGBYKACAWIQQbKmU9
dVkzdd7/pURd+grAOioqyQUCalHqHAIbDAAKCRBd+grAOioqybTOAPsEfi38
hQZa9MQ+Onlx9m/dymLpuON3fa4VuCZdoIRomQD/V8cg79p5NvT9TfTQiNZA
OU8xpMIzeQE0tnw2dB4EOgU=
=xBFr
-----END PGP PUBLIC KEY BLOCK-----
